X:2
T:But Not For Me
C:George Gershwin
L:1/4
M:C
I:linebreak $
K:Eb
"Cm" z F G F S||"F7" G F/E/- E2 |"Bb7" z F G F |"Eb" G4 |$"Cm" z F G F |"F7" G F/E/- E2 |
"Fm" z F"Bb7" G F |"Eb7" G4 |$"Bbm" z G"Eb7" A B |"Ab" =B c/e/- e2 |"Db7" z F G A Ox/||
"Gm" =A B/e/- e2 |$"Cm" z E F G |"Fm" G A/e/-"FmM" e2 |"Fm" z e c A |"B7" F4 |
"Bb7" z F G"_D.S. al Coda" F ||$Ox/"Gm" =A B/f/- f2 |"Gb7" z e c A |"F7b5" G4 |"Bb7" G4 |"Eb" E4 |]

